public/images/icons/flash.svg

<svg width="60" height="60" viewBox="0 0 60 60" fill="none" xmlns="http://www.w3.org/2000/svg">
<g clip-path="url(#clip0_31_11)">
<g filter="url(#filter0_d_31_11)">
<path d="M47.6953 24.7266H33.1389L45.7077 2.62665C46.0172 2.08283 46.0135 1.41495 45.699 0.873872C45.3845 0.332795 44.8055 0 44.1797 0H23.0859C22.3288 0 21.6563 0.48523 21.4178 1.20392L10.8709 32.9613C10.6929 33.4974 10.783 34.086 11.1136 34.5443C11.4441 35.002 11.9742 35.2735 12.539 35.2735H27.4562L17.9535 57.5524C17.6152 58.3457 17.9017 59.2667 18.6305 59.7277C19.3593 60.1887 20.3146 60.0527 20.8864 59.4077L49.0114 27.6499C50.013 26.5183 49.2082 24.7266 47.6953 24.7266V24.7266ZM25.4388 48.9647L31.734 34.2055C32.2275 33.0483 31.3779 31.7578 30.1172 31.7578H14.9748L24.3544 3.51563H41.1575L28.5892 25.6151C27.9245 26.7838 28.7691 28.2422 30.1172 28.2422H43.7906L25.4388 48.9647Z" fill="white"/>
</g>
</g>
<defs>
<filter id="filter0_d_31_11" x="6.78123" y="0" width="46.6737" height="68" filterUnits="userSpaceOnUse" color-interpolation-filters="sRGB">
<feFlood flood-opacity="0" result="BackgroundImageFix"/>
<feColorMatrix in="SourceAlpha" type="matrix" values="0 0 0 0 0 0 0 0 0 0 0 0 0 0 0 0 0 0 127 0" result="hardAlpha"/>
<feOffset dy="4"/>
<feGaussianBlur stdDeviation="2"/>
<feComposite in2="hardAlpha" operator="out"/>
<feColorMatrix type="matrix" values="0 0 0 0 0 0 0 0 0 0 0 0 0 0 0 0 0 0 0.25 0"/>
<feBlend mode="normal" in2="BackgroundImageFix" result="effect1_dropShadow_31_11"/>
<feBlend mode="normal" in="SourceGraphic" in2="effect1_dropShadow_31_11" result="shape"/>
</filter>
<clipPath id="clip0_31_11">
<rect width="60" height="60" fill="white"/>
</clipPath>
</defs>
</svg>

<svg width="60" height="60" fill="none" xmlns="http://www.w3.org/2000/svg"><path d="M47.695 24.727H33.14l12.569-22.1A1.758 1.758 0 0 0 44.18 0H23.086c-.757 0-1.43.485-1.668 1.204L10.87 32.96a1.758 1.758 0 0 0 1.668 2.313h14.917l-9.503 22.278a1.758 1.758 0 0 0 2.933 1.856L49.011 27.65c1.002-1.132.197-2.923-1.316-2.923ZM25.44 48.965l6.295-14.76a1.759 1.759 0 0 0-1.617-2.447H14.975l9.38-28.242h16.802l-12.568 22.1c-.665 1.168.18 2.626 1.528 2.626h13.674L25.439 48.965Z" fill="#79B282"/></svg>
